X: 34755
T: Road To Loch Nam Bairneas, The
R: reel
M: 4/4
K: Amajor
FE|F4 F2EF|A2c2 c2Bc|e2c2 c2Bc|eBcA EFFE|
F4 F2EF|A2c2 c2Bc|e3c BABc|F6:|
|:EF|A3A AEAB|c2Bc F2FE|c2Bc eecB|BcBA F2E/F/G|
A3A AEAB|c2Bc F2FE|e2ec BABc|1 F6:|2 F4FFED||
|:DFAF DFAB|c2ec BABc|F2EF AEAB|c2BA F2FE|
DFAF DFAB|c2ec BABc|ceec BABc|1 F4FFED:|2 F2FE EFAB||
cece A2AB|cecA F2FE|EFAB AEAB|c2BA F2FE|
cece A2AB|cecA F2FE|e2ec BABc|F4 FEAB|
cece A2AB|cecA F2FE|EFAB cBAB|cAec B2AB|
cece A2AB|cecA F2FE|e2ec BABc|F6||

